X:1720
T:Samarkand
R:Pols
C:Oline Bakkom-Härdelin
O:Hälsingland
Z:Håkan Lidén
M:3/4
L:1/8
K:D
|: F>A d<f a>f | g>e (3cec d>A | F>A d<f a>f | g2 e3 f |
g>b a>g e>c | d>d f<d A>F | G>B d<B A>c |1 e<c d3 A :|2 e<c d3 c ||
|: B>c d<e f>d | f>b a>g f>e | d>c B>c d>e | f<d c3 c |
d>c B>A F>A | d>e f<d e>f | g>f e>d c>d |1 (3ece d3 c :|2 (3ece d4 |]
(:musicend:)
(:music:)
